X:1
T: Hon. Captain Elphinston
C:
R:Strathspey
Q: 128
K:Bb
M:4/4
L:1/16
|:GG3 d3B G4 DB3|GG3 G2B2 d3c Bg3|GG3 d3B G4 D3E|F3G A2B2 c3B A2f2|
GG3 d3B G4 D2B2|GG3 G2B2 d3c Bg3|GG3 d3B G4 D2E2|F3G A2B2 c2f2 f2a2|
gg3 b3a g4 d2e^f|gg3 g3a b3a g3d|gg3 b3a g4 d2cB|A3f c3f A3G F2a2|
gg3 b3a g4 d2e^f|gg3 g3a b3a g2d2|gg3 b3g a2f2 g2d2|f3c d2f2 A3F B4:|
